!!!OTL: 195. Sher
!!!Genre:	Sher
!!!Mode:	Minor
!!!Listening/dance:	dance
!!!One_Mode:	no
**kern
*I"P1
*clefG2
*k[b-e-]
*g:
*M2/4
*>A
!LO:TX:a:i:t=G-minor
=1
(8qd/
16gLL)
16aJJ
4b-
8b-
=2
16ccLL
16b-
16dd
16ccJJ
4b-
=3
16b-LL
16a
16g
16aJJ
16b-LL
16cc
16b-
16aJJ
=4
8gL
8gJ
8b-TL
8gJ
=5
16gLL
16aJJ
4b-
8b-
=6
16ccLL
16b-
16cc
16ddJJ
4b-
=7
16b-LL
16a
16g
16aJJ
16b-LL
16cc
16a
16b-JJ
=8
2g
=9:|!|:
*>bM
*B-:
*>B
!LO:TX:a:i:t=Bb-major
8ddL
16ee-L
16ddJJ
8ccL
8ddJ
=10
4ee-
4dd
=11
16ccLL
16ddJ
8ccJ
8gL
8aJ
=12
2b-
=13
16ffLL
16ggJ
8ffJ
8eenL
8ffJ
=14
4gg
16ffLL
16ee-X
16dd
16ccJJ
=15
4cc
8ffL
8ee-J
=16
2dd
*>eM
*g:
!LO:TX:a:i:t=G-minor
=17
16ddLL
16ee-
16dd
16ccJJ
16b-LL
16cc
16b-
16aJJ
=18
8gL
8aJ
8b-L
8ccJ
=19
16ddLL
16ee-
16dd
16ccJJ
16b-LL
16cc
16b-
16aJJ
=20
4g
4gg
=21
16ddLL
16ee-
16dd
16ccJJ
16b-LL
16cc
16b-
16aJJ
=22
8gL
8aJ
8b-L
8ccJ
=23
16ddLL
16ee-
16dd
16ccJJ
16b-LL
16cc
16b-
16aJJ
=24
4g
4g
=:|!
*-
